X:1
T:Dunque sol per amare
T:Luca Marenzio
T:Source : Il quinto libro delle Villanelle a tre voci---Venetia---Herede di G.Scotto---1587. Editor : André Vierendeels ( 04/06/17).
T:Notes : Original clefs : C1, C2, F4 Editorial accidentals above the staff Music collected by Attilio Gualtieri
T:Dunque sol per amare
T:©
T:©
C:Luca Marenzio
Z:©
%%score [ 1 2 3 ]
L:1/8
Q:1/4=120
M:4/4
K:C
V:1 treble nm="Soprano 1" snm="S 1"
V:2 treble nm="Soprano 2" snm="S 2"
V:3 bass nm="Bass" snm="B"
V:1
 G8 | G4 G2 A2- | A2 A2 B4 | B4 z2 e2 | f4 e2 d2- | d2 d2 c4 |[M:2/4] c4 ::[M:4/4] z2 e2 dcBc | %8
w: 1. Dun-|que sol per|_ a- ma-|re, ho|sem- pre da|_ pe- na-|re,|e per po- ter gio-|
w: 2. Se|mi vo- le-|* te mor-|to, a|che dar- mi|_ con- for-|to,|se vi- no'à che vo-|
 dcde d3 c/B/ | A4 A4 | c2 c2 c4- | c2 B4 G2 | A4 !fermata!G4 |] %13
w: i- * * * * * *|* re,|deg- gio sem-|* pre lan-|gui- re.|
w: le- * * * * * *|* re,|far- mi sem-|* pre do-|le- re.|
V:2
 D8 | E4 G2 ^F2- | F2 ^F2 G4 | G4 z2 c2 | A4 c2 B2- | B2 B2 c4 |[M:2/4] c4 ::[M:4/4] z2 c2 BAGA | %8
w: 1. Dun-|que sol per|_ a- ma-|re, ho|sem- pre da|_ pe- na-|re,|e per po- ter gio-|
w: 3 Dhe|cres- ca'in voi|_ pie- ta-|de, e|sce- mi cru-|* del- ta-|de,|ol' vun di dua vi|
 BABc B3 A/G/ | ^F4 F4 | A2 A2 A4- | A2 G4 G2- | G2 ^F2 !fermata!G4 |] %13
w: i- * * * * * *|* re,|deg- gio sem-|* pre lan|_ gui- re.|
w: pac- * * * * * *|* cia,|ch'io vi- va'o|_ mo- ro'a'e|_ tac- cia.|
V:3
 G,8 | C,4 E,2 D,2- | D,2 D,2 G,4 | G,4 C,4 | F,4 C,2 G,2- | G,2 G,2 C,4 |[M:2/4] C,4 :: %7
w: 1. Dun-|que sol per|_ a- ma-|re, ho|sem- pre da|_ pe- na-|re,|
w: 4. Che|vi- ve'in dub-|* bia vi-|ta, vi-|ve'in pe- na'in-|* fi- ni-|ta,|
[M:4/4] C4 G,F,E,F, | G,F,G,A, G,3 F,/E,/ | D,4 D,4 |"^-natural" F,2 F,2 F,4- | F,2 G,4 E,2 | %12
w: e per po- ter gio-|i- * * * * * *|* re,|deg- gio sem-|* pre lan|
w: me- glio'e'a- man- do mo-|ri- * * * * * *|* re,|che vi- ve-|* r'e lan-|
 D,4 !fermata!G,,4 |] %13
w: gui- re.|
w: gui- re.|

